shared/images/iconfont/kb-iconfont-thunderbolt-16.svg

<?xml version="1.0" encoding="UTF-8"?>
<svg width="16px" height="16px" viewBox="0 0 16 16" version="1.1" xmlns="http://www.w3.org/2000/svg" xmlns:xlink="http://www.w3.org/1999/xlink">
    <!-- Generator: sketchtool 41.2 (35397) - http://www.bohemiancoding.com/sketch -->
    <title>0F3A9D1B-5764-459F-BBEF-B4AD35DB5196</title>
    <desc>Created with sketchtool.</desc>
    <defs></defs>
    <g id="Icons" stroke="none" stroke-width="1" fill="none" fill-rule="evenodd">
        <g id="Style-guide---Desktop---Icons-2" transform="translate(-401.000000, -1116.000000)">
            <g id="kb-iconfont-thunderbolt-16" transform="translate(401.000000, 1116.000000)">
                <rect id="icon-area" fill="#D8D8D8" opacity="0" x="0" y="0" width="16" height="16"></rect>
                <path d="M4.38426695,8.62507194 L4.49305846,8.62507194 L8.00834095,7.76635335 L6.29747313,14.5629196 C6.28222846,14.652887 6.29747313,14.7435258 6.34459302,14.8187224 C6.39101997,14.8945904 6.4686292,14.9543449 6.56217605,14.9845578 C6.62454061,14.9845578 6.67096756,15 6.68621223,15 C6.85736831,15 6.98209743,14.924132 7.04446199,14.7885095 L11.7412065,5.0539037 C11.803571,4.91828122 11.7883264,4.7974295 11.6788419,4.69201995 C11.585988,4.60138116 11.4924412,4.55639747 11.3836496,4.55639747 C11.3524674,4.55639747 11.3212851,4.57116823 11.2748581,4.57116823 L7.83718487,5.40034529 L9.33046967,1.512277 C9.34640728,1.45185114 9.36165195,1.40686745 9.36165195,1.36121235 C9.36165195,1.2558028 9.33046967,1.18060618 9.25286044,1.10540955 C9.1752512,1.04498369 9.08170436,1 8.97291285,1 L6.12631705,1 C6.03346315,1 5.95516097,1.03021293 5.89348935,1.07519662 C5.81518718,1.13562248 5.76876023,1.19537694 5.75351556,1.27124496 L4.01146545,8.21820449 C3.98028317,8.33905621 4.01146545,8.45923652 4.12025697,8.53443315 C4.1978662,8.59485901 4.27547543,8.62507194 4.38426695,8.62507194 Z" id="Fill-190" fill="#000000"></path>
            </g>
        </g>
    </g>
</svg>

<svg xmlns="http://www.w3.org/2000/svg" width="16" height="16" viewBox="0 0 16 16">
    <path fill="#000" fill-rule="evenodd" d="M4.384 8.625h.11l3.514-.859-1.71 6.797c-.016.09 0 .18.047.256a.396.396 0 0 0 .217.166c.063 0 .109.015.124.015.171 0 .296-.076.358-.211l4.697-9.735c.063-.136.047-.257-.062-.362a.41.41 0 0 0-.295-.136c-.032 0-.063.015-.11.015l-3.437.83L9.33 1.511c.016-.06.032-.105.032-.15a.325.325 0 0 0-.11-.257.454.454 0 0 0-.28-.105H6.127a.39.39 0 0 0-.233.075c-.078.06-.124.12-.14.196L4.012 8.218c-.03.121 0 .241.11.316.077.06.154.091.263.091z"/>
</svg>
